icons/lines/like-one.svg

<svg xmlns="http://www.w3.org/2000/svg" width="24" height="24" viewBox="0 0 24 24" fill="none" stroke="currentColor" stroke-width="2" stroke-linecap="round" stroke-linejoin="round" >
  <path d="M7.47998 18.35L10.58 20.75C10.98 21.15 11.88 21.35 12.48 21.35H16.28C17.48 21.35 18.78 20.45 19.08 19.25L21.48 11.95C21.98 10.55 21.08 9.34997 19.58 9.34997H15.58C14.98 9.34997 14.48 8.84997 14.58 8.14997L15.08 4.94997C15.28 4.04997 14.68 3.04997 13.78 2.74997C12.98 2.44997 11.98 2.84997 11.58 3.44997L7.47998 9.54997" stroke-miterlimit="10"/>
  <path d="M2.37988 18.35V8.55002C2.37988 7.15002 2.97988 6.65002 4.37988 6.65002H5.37988C6.77988 6.65002 7.37988 7.15002 7.37988 8.55002V18.35C7.37988 19.75 6.77988 20.25 5.37988 20.25H4.37988C2.97988 20.25 2.37988 19.75 2.37988 18.35Z"/>
  </svg>

<svg xmlns="http://www.w3.org/2000/svg" width="24" height="24" viewBox="0 0 24 24" fill="none" stroke="currentColor" stroke-width="2" stroke-linecap="round" stroke-linejoin="round">
  <path d="M2.38 8.55c0-1.4.6-1.9 2-1.9h1c1.4 0 2 .5 2 1.9v9.8c0 1.4-.6 1.9-2 1.9h-1c-1.4 0-2-.5-2-1.9z" />
  <path d="m7.48 18.35 3.1 2.4c.4.4 1.3.6 1.9.6h3.8c1.2 0 2.5-.9 2.8-2.1l2.4-7.3c.5-1.4-.4-2.6-1.9-2.6h-4a1 1 0 0 1-1-1.2l.5-3.2c.2-.9-.4-1.9-1.3-2.2-.8-.3-1.8.1-2.2.7l-4.1 6.1" />
</svg>
